X: 85
T: You Will Walk
C: Teton Sioux band 1911-1914
N: Derived from sioux085.krn
O: South Dakota, U.S.A.
N: Teton Sioux Music by Frances Densmore, 1918
Z: transcribed to **kern format by Craig Sapp
L: 1/8
M: 2/4
Q: 1/4=58
K: Ab clef=bass
%%linebreak <none>
E EE2 [I:setbarnb 2]| 
E B,B,2 | 
C C C C/ B,/ | 
B,3B,/ B,/ | 
B,2A,/ A,3/- | 
A,3A,/ A,/ | 
A,2B,/ B,/ B,/ B,/ | 
A,2E, D, | 
E,4 | 
(3C C CC2 | 
E C B, B, | 
(B,/ C/) B, B, B, ||  
[M:3/4]A,< A, A, A,- A, A,/ A,/ ||  
[M:2/4]A,2B,/ B,/ B,/ B,/ | 
A,2E, D, | 
E,4 |]  



